; generated by PrusaSlicer 2.3.0+ on 2021-06-03 at 12:05:45 UTC


;
;

;
;
; 

; external perimeters extrusion width = 0.45mm
; perimeters extrusion width = 0.45mm
; infill extrusion width = 0.45mm
; solid infill extrusion width = 0.45mm
; top infill extrusion width = 0.40mm
; first layer extrusion width = 0.42mm

M73 P0 R187
M201 X1250 Y1250 Z400 E5000 ; sets maximum accelerations, mm/sec^2
M203 X180 Y180 Z12 E80 ; sets maximum feedrates, mm/sec
M204 P1250 R1250 T1250 ; sets acceleration (P, T) and retract acceleration (R), mm/sec^2
M205 X8.00 Y8.00 Z2.00 E10.00 ; sets the jerk limits, mm/sec
M205 S0 T0 ; sets the minimum extruding and travel feed rate, mm/sec
M107
;TYPE:Custom
G90 ; use absolute coordinates
M83 ; extruder relative mode
M104 S170 ; set extruder temp for bed leveling
M140 S85 ; set bed temp
M109 R170 ; wait for bed leveling temp
M190 S85 ; wait for bed temp
G28 ; home all without mesh bed level
G29 ; mesh bed leveling 
M104 S230 ; set extruder temp
G92 E0.0
G1 Y-2.0 X179 F2400
G1 Z3 F720
M109 S230 ; wait for extruder temp

; intro line
G1 X170 F1000
G1 Z0.2 F720
G1 X110.0 E8.0 F900
G1 X40.0 E10.0 F700
G92 E0.0

M221 S95 ; set flow
G21 ; set units to millimeters
G90 ; use absolute coordinates
M83 ; use relative distances for extrusion
M900 K0.2 ; Filament gcode
;LAYER_CHANGE
;Z:0.2
;HEIGHT:0.2
;BEFORE_LAYER_CHANGE
G92 E0.0
;0.2


G1 E-3.20000 F2400.000
G1 Z0.200 F9000.000
;AFTER_LAYER_CHANGE
;0.2
G1 Z0.400
G1 X70.652 Y68.251
G1 Z0.200
G1 E3.20000 F1500.000
M204 S800
;TYPE:Skirt
;WIDTH:0.42
G1 F1200.000
G1 X72.603 Y66.334 E0.08577
G1 X74.440 Y64.799 E0.07505
G1 X75.647 Y63.906 E0.04709
G1 X76.798 Y63.136 E0.04343
G1 X78.864 Y61.926 E0.07506
G1 X81.404 Y60.699 E0.08846
G1 X82.692 Y60.181 E0.04351
G1 X84.964 Y59.420 E0.07512
G1 X87.698 Y58.744 E0.08832
G1 X90.408 Y58.322 E0.08601
G1 X92.877 Y58.142 E0.07760
G1 X94.224 Y58.124 E0.04224
G1 X96.885 Y58.258 E0.08354
G1 X99.605 Y58.628 E0.08608
G1 X103.211 Y59.497 E0.11632
G1 X105.846 Y60.423 E0.08756
G1 X108.260 Y61.512 E0.08304
G1 X110.629 Y62.830 E0.08500
G1 X113.669 Y64.951 E0.11623
G1 X115.752 Y66.738 E0.08603
G1 X117.649 Y68.673 E0.08499
G1 X119.369 Y70.755 E0.08465
G1 X120.143 Y71.822 E0.04132
G1 X121.430 Y73.837 E0.07499
G1 X122.738 Y76.296 E0.08734
G1 X123.788 Y78.761 E0.08399
G1 X124.619 Y81.280 E0.08316
G1 X125.236 Y83.851 E0.08292
G1 X125.650 Y86.729 E0.09116
G1 X125.568 Y94.111 E0.23148
G1 X125.101 Y96.795 E0.08540
G1 X124.501 Y99.113 E0.07509
G1 X124.046 Y100.526 E0.04653
G1 X123.038 Y103.056 E0.08540
G1 X121.972 Y105.205 E0.07521
G1 X121.221 Y106.518 E0.04741
G1 X119.731 Y108.757 E0.08434
G1 X118.245 Y110.642 E0.07525
G1 X117.263 Y111.749 E0.04641
G1 X115.312 Y113.666 E0.08577
G1 X113.475 Y115.201 E0.07505
G1 X112.268 Y116.094 E0.04709
G1 X111.117 Y116.864 E0.04343
G1 X109.051 Y118.074 E0.07505
G1 X106.511 Y119.301 E0.08846
G1 X105.223 Y119.819 E0.04351
G1 X102.951 Y120.580 E0.07512
G1 X100.213 Y121.257 E0.08844
G1 X98.829 Y121.502 E0.04407
G1 X96.377 Y121.785 E0.07740
G1 X93.660 Y121.876 E0.08524
G1 X90.932 Y121.732 E0.08563
G1 X87.260 Y121.164 E0.11653
G1 X84.558 Y120.460 E0.08754
G1 X82.065 Y119.576 E0.08292
G1 X79.655 Y118.488 E0.08292
G1 X77.286 Y117.170 E0.08500
G1 X74.246 Y115.049 E0.11623
G1 X72.163 Y113.262 E0.08603
G1 X70.265 Y111.327 E0.08499
G1 X68.546 Y109.245 E0.08465
G1 X67.772 Y108.178 E0.04133
G1 X66.485 Y106.163 E0.07499
G1 X65.177 Y103.703 E0.08734
G1 X64.127 Y101.239 E0.08399
G1 X63.296 Y98.720 E0.08316
G1 X62.679 Y96.149 E0.08292
G1 X62.265 Y93.271 E0.09116
G1 X62.347 Y85.889 E0.23148
G1 X62.813 Y83.205 E0.08540
G1 X63.414 Y80.887 E0.07508
G1 X63.869 Y79.474 E0.04653
G1 X64.877 Y76.944 E0.08540
G1 X65.943 Y74.795 E0.07521
G1 X66.694 Y73.482 E0.04741
G1 X68.184 Y71.243 E0.08434
G1 X69.669 Y69.358 E0.07525
G1 X70.612 Y68.296 E0.04453
M204 S1250
; printing object Chip Truck v3 v80.stl id:0 copy 0
G1 E-2.24000 F2400.000
;WIPE_START
G1 F7200.000
G1 X72.603 Y66.334 E-0.88517
G1 X72.668 Y66.279 E-0.02683
;WIPE_END
G1 E-0.04800 F2400.000
G1 Z0.400 F9000.000
G1 X121.568 Y86.051
G1 Z0.200
G1 E3.20000 F1500.000
M204 S800
;TYPE:Perimeter
G1 F1200.000
G1 X121.748 Y87.992 E0.06112
G1 X121.806 Y89.125 E0.03558
G1 X121.819 Y90.259 E0.03558
G1 X121.785 Y91.394 E0.03558
G1 X121.706 Y92.525 E0.03558
G1 X121.489 Y94.463 E0.06112
G1 X122.303 Y94.542 E0.02564
G1 X122.019 Y96.079 E0.04902
G1 X121.743 Y97.236 E0.03729
G1 X121.420 Y98.380 E0.03729
G1 X121.049 Y99.510 E0.03729
G1 X120.632 Y100.624 E0.03729
G1 X120.169 Y101.720 E0.03729
G1 X119.661 Y102.795 E0.03729
G1 X119.110 Y103.849 E0.03729
G1 X118.514 Y104.879 E0.03729
G1 X117.877 Y105.883 E0.03729
G1 X117.199 Y106.860 E0.03729
G1 X116.481 Y107.808 E0.03728
G1 X115.724 Y108.725 E0.03729
G1 X114.930 Y109.610 E0.03729
G1 X114.100 Y110.462 E0.03729
G1 X113.235 Y111.279 E0.03729
G1 X112.358 Y112.042 E0.03646
G1 X111.408 Y112.801 E0.03812
G1 X110.449 Y113.504 E0.03728
G1 X109.462 Y114.167 E0.03729
G1 X108.447 Y114.788 E0.03729
G1 X107.408 Y115.367 E0.03729
G1 X106.346 Y115.902 E0.03729
G1 X105.263 Y116.393 E0.03729
G1 X104.160 Y116.839 E0.03729
G1 X103.040 Y117.238 E0.03729
G1 X101.904 Y117.591 E0.03729
G1 X100.755 Y117.897 E0.03729
G1 X99.594 Y118.154 E0.03729
G1 X98.448 Y118.359 E0.03649
G1 X97.250 Y118.523 E0.03792
G1 X96.066 Y118.635 E0.03729
G1 X94.877 Y118.698 E0.03734
G1 X93.688 Y118.711 E0.03728
G1 X92.490 Y118.675 E0.03758
G1 X91.316 Y118.591 E0.03689
G1 X90.141 Y118.458 E0.03709
G1 X88.964 Y118.275 E0.03734
G1 X87.784 Y118.041 E0.03771
G1 X86.628 Y117.762 E0.03727
G1 X85.485 Y117.434 E0.03728
G1 X84.382 Y117.069 E0.03646
G1 X83.245 Y116.640 E0.03809
G1 X82.152 Y116.173 E0.03727
G1 X81.078 Y115.662 E0.03728
G1 X80.027 Y115.107 E0.03728
G1 X79.022 Y114.522 E0.03646
G1 X77.998 Y113.869 E0.03809
G1 X77.023 Y113.188 E0.03727
G1 X76.078 Y112.467 E0.03728
G1 X75.183 Y111.724 E0.03646
G1 X74.281 Y110.910 E0.03809
G1 X73.432 Y110.078 E0.03727
G1 X72.619 Y109.211 E0.03728
G1 X71.858 Y108.331 E0.03647
G1 X71.102 Y107.380 E0.03809
G1 X70.403 Y106.419 E0.03727
G1 X69.743 Y105.430 E0.03728
G1 X69.138 Y104.437 E0.03647
G1 X68.550 Y103.374 E0.03809
G1 X68.018 Y102.311 E0.03727
G1 X67.530 Y101.227 E0.03728
G1 X67.088 Y100.123 E0.03728
G1 X66.692 Y99.002 E0.03727
G1 X66.343 Y97.865 E0.03727
G1 X66.041 Y96.716 E0.03727
G1 X65.787 Y95.554 E0.03727
G1 X65.581 Y94.383 E0.03728
G1 X65.532 Y94.013 E0.01172
G1 X66.347 Y93.949 E0.02564
G1 X66.167 Y92.008 E0.06112
G1 X66.108 Y90.875 E0.03558
G1 X66.096 Y89.741 E0.03558
G1 X66.130 Y88.606 E0.03558
G1 X66.209 Y87.475 E0.03558
G1 X66.426 Y85.537 E0.06112
G1 X65.612 Y85.458 E0.02564
G1 X65.896 Y83.921 E0.04902
G1 X66.171 Y82.764 E0.03729
G1 X66.495 Y81.620 E0.03729
G1 X66.865 Y80.490 E0.03729
G1 X67.283 Y79.376 E0.03729
G1 X67.746 Y78.280 E0.03729
G1 X68.253 Y77.205 E0.03729
G1 X68.805 Y76.151 E0.03729
G1 X69.400 Y75.121 E0.03729
G1 X70.038 Y74.117 E0.03729
G1 X70.716 Y73.140 E0.03729
G1 X71.434 Y72.192 E0.03728
G1 X72.174 Y71.295 E0.03646
G1 X72.985 Y70.389 E0.03812
G1 X73.815 Y69.538 E0.03728
G1 X74.680 Y68.721 E0.03729
G1 X75.577 Y67.941 E0.03729
G1 X76.507 Y67.199 E0.03729
G1 X77.466 Y66.496 E0.03729
G1 X78.453 Y65.833 E0.03729
G1 X79.467 Y65.212 E0.03729
G1 X80.506 Y64.633 E0.03729
G1 X81.568 Y64.098 E0.03729
G1 X82.652 Y63.607 E0.03729
G1 X83.755 Y63.161 E0.03729
G1 X84.850 Y62.770 E0.03646
G1 X86.011 Y62.409 E0.03812
G1 X87.160 Y62.103 E0.03728
G1 X88.321 Y61.846 E0.03729
G1 X89.493 Y61.636 E0.03734
G1 X90.664 Y61.477 E0.03706
G1 X91.849 Y61.365 E0.03729
G1 X93.035 Y61.302 E0.03725
G1 X94.626 Y61.300 E0.04987
G1 X95.412 Y61.324 E0.02466
G1 X96.599 Y61.409 E0.03731
G1 X97.783 Y61.543 E0.03736
G1 X98.964 Y61.727 E0.03749
G1 X100.131 Y61.959 E0.03730
G1 X101.261 Y62.232 E0.03646
G1 X102.429 Y62.566 E0.03809
G1 X103.558 Y62.940 E0.03727
G1 X104.670 Y63.360 E0.03728
G1 X105.763 Y63.827 E0.03728
G1 X106.813 Y64.326 E0.03646
G1 X107.888 Y64.893 E0.03809
G1 X108.915 Y65.491 E0.03727
G1 X109.917 Y66.131 E0.03728
G1 X110.870 Y66.798 E0.03646
G1 X111.837 Y67.533 E0.03809
G1 X112.752 Y68.293 E0.03727
G1 X113.634 Y69.089 E0.03728
G1 X114.464 Y69.904 E0.03646
G1 X115.296 Y70.789 E0.03809
G1 X116.073 Y71.689 E0.03727
G1 X116.812 Y72.620 E0.03728
G1 X117.512 Y73.581 E0.03728
G1 X118.158 Y74.548 E0.03647
G1 X118.790 Y75.586 E0.03809
G1 X119.365 Y76.626 E0.03727
G1 X119.897 Y77.689 E0.03728
G1 X120.384 Y78.773 E0.03728
G1 X120.827 Y79.877 E0.03728
G1 X121.223 Y80.998 E0.03727
G1 X121.572 Y82.135 E0.03727
G1 X121.874 Y83.284 E0.03727
G1 X122.128 Y84.446 E0.03727
G1 X122.383 Y85.987 E0.04899
G1 X121.627 Y86.046 E0.02376
M204 S1250
G1 X121.978 Y86.397 F9000.000
M204 S800
;TYPE:External perimeter
G1 F1200.000
G1 X122.124 Y87.965 E0.04936
G1 X122.183 Y89.113 E0.03606
G1 X122.196 Y90.263 E0.03606
G1 X122.162 Y91.412 E0.03606
G1 X122.081 Y92.560 E0.03606
G1 X121.907 Y94.124 E0.04936
G1 X122.736 Y94.205 E0.02613
G1 X122.619 Y94.976 E0.02447
G1 X122.388 Y96.159 E0.03778
G1 X122.108 Y97.331 E0.03778
G1 X121.781 Y98.491 E0.03778
G1 X121.405 Y99.635 E0.03778
G1 X120.983 Y100.764 E0.03778
G1 X120.514 Y101.874 E0.03778
G1 X119.999 Y102.964 E0.03778
G1 X119.440 Y104.031 E0.03778
G1 X118.837 Y105.074 E0.03778
G1 X118.191 Y106.092 E0.03778
G1 X117.504 Y107.081 E0.03778
G1 X116.777 Y108.042 E0.03777
G1 X116.010 Y108.971 E0.03778
G1 X115.206 Y109.868 E0.03778
G1 X114.365 Y110.731 E0.03778
G1 X113.489 Y111.558 E0.03778
G1 X112.599 Y112.331 E0.03695
G1 X111.637 Y113.101 E0.03861
G1 X110.666 Y113.813 E0.03778
G1 X109.665 Y114.484 E0.03778
G1 X108.638 Y115.114 E0.03778
G1 X107.585 Y115.700 E0.03778
G1 X106.509 Y116.243 E0.03778
G1 X105.412 Y116.740 E0.03778
G1 X104.294 Y117.191 E0.03778
G1 X103.160 Y117.596 E0.03778
G1 X102.009 Y117.954 E0.03778
G1 X100.844 Y118.263 E0.03778
G1 X99.668 Y118.524 E0.03778
G1 X98.507 Y118.732 E0.03697
G1 X97.294 Y118.898 E0.03841
G1 X96.094 Y119.011 E0.03778
G1 X94.889 Y119.075 E0.03783
G1 X93.684 Y119.089 E0.03778
G1 X92.471 Y119.052 E0.03807
G1 X91.281 Y118.967 E0.03738
G1 X90.090 Y118.832 E0.03758
G1 X88.898 Y118.647 E0.03783
G1 X87.703 Y118.410 E0.03821
G1 X86.532 Y118.126 E0.03776
G1 X85.374 Y117.795 E0.03777
G1 X84.256 Y117.424 E0.03695
G1 X83.104 Y116.989 E0.03858
G1 X81.996 Y116.517 E0.03776
G1 X80.909 Y115.999 E0.03777
G1 X79.844 Y115.437 E0.03777
G1 X78.825 Y114.844 E0.03695
G1 X77.788 Y114.182 E0.03858
G1 X76.801 Y113.492 E0.03776
G1 X75.843 Y112.762 E0.03777
G1 X74.936 Y112.009 E0.03695
G1 X74.022 Y111.185 E0.03858
G1 X73.162 Y110.342 E0.03776
G1 X72.338 Y109.464 E0.03777
G1 X71.568 Y108.572 E0.03695
G1 X70.802 Y107.609 E0.03858
G1 X70.093 Y106.635 E0.03776
G1 X69.425 Y105.633 E0.03777
G1 X68.812 Y104.626 E0.03695
G1 X68.216 Y103.550 E0.03858
G1 X67.677 Y102.473 E0.03776
G1 X67.183 Y101.374 E0.03776
G1 X66.735 Y100.256 E0.03777
G1 X66.334 Y99.120 E0.03776
G1 X65.980 Y97.969 E0.03776
G1 X65.674 Y96.804 E0.03776
G1 X65.417 Y95.627 E0.03776
G1 X65.209 Y94.441 E0.03777
G1 X65.105 Y93.668 E0.02445
G1 X65.936 Y93.603 E0.02613
G1 X65.791 Y92.035 E0.04936
G1 X65.731 Y90.887 E0.03606
G1 X65.719 Y89.737 E0.03606
G1 X65.753 Y88.588 E0.03606
G1 X65.834 Y87.440 E0.03606
G1 X66.008 Y85.876 E0.04936
G1 X65.179 Y85.795 E0.02613
G1 X65.296 Y85.024 E0.02447
G1 X65.527 Y83.841 E0.03778
G1 X65.806 Y82.669 E0.03778
G1 X66.134 Y81.509 E0.03778
G1 X66.510 Y80.365 E0.03778
G1 X66.932 Y79.236 E0.03778
G1 X67.401 Y78.126 E0.03778
G1 X67.916 Y77.036 E0.03778
G1 X68.475 Y75.969 E0.03778
G1 X69.078 Y74.926 E0.03778
G1 X69.723 Y73.908 E0.03778
G1 X70.411 Y72.919 E0.03778
G1 X71.138 Y71.958 E0.03777
G1 X71.888 Y71.049 E0.03695
G1 X72.709 Y70.132 E0.03861
G1 X73.550 Y69.269 E0.03778
G1 X74.426 Y68.442 E0.03778
G1 X75.336 Y67.651 E0.03778
G1 X76.277 Y66.899 E0.03778
G1 X77.249 Y66.187 E0.03778
G1 X78.250 Y65.516 E0.03778
G1 X79.277 Y64.886 E0.03778
G1 X80.330 Y64.300 E0.03778
G1 X81.406 Y63.757 E0.03778
G1 X82.503 Y63.260 E0.03778
G1 X83.620 Y62.809 E0.03778
G1 X84.730 Y62.413 E0.03695
G1 X85.906 Y62.046 E0.03861
G1 X87.071 Y61.737 E0.03778
G1 X88.247 Y61.476 E0.03778
G1 X89.435 Y61.264 E0.03783
G1 X90.621 Y61.102 E0.03755
G1 X91.821 Y60.989 E0.03778
G1 X93.025 Y60.925 E0.03780
G1 X94.631 Y60.923 E0.05036
G1 X95.431 Y60.947 E0.02509
G1 X96.633 Y61.033 E0.03780
G1 X97.833 Y61.169 E0.03785
G1 X99.030 Y61.356 E0.03798
G1 X100.212 Y61.590 E0.03779
G1 X101.357 Y61.867 E0.03695
G1 X102.541 Y62.205 E0.03858
G1 X103.684 Y62.584 E0.03776
G1 X104.810 Y63.010 E0.03777
G1 X105.918 Y63.483 E0.03777
G1 X106.983 Y63.989 E0.03695
G1 X108.071 Y64.563 E0.03858
G1 X109.112 Y65.169 E0.03776
G1 X110.127 Y65.818 E0.03777
G1 X111.093 Y66.493 E0.03695
G1 X112.072 Y67.238 E0.03858
G1 X112.998 Y68.008 E0.03776
G1 X113.892 Y68.815 E0.03777
G1 X114.734 Y69.640 E0.03695
G1 X115.577 Y70.536 E0.03858
G1 X116.364 Y71.448 E0.03776
G1 X117.113 Y72.391 E0.03777
G1 X117.822 Y73.365 E0.03777
G1 X118.476 Y74.346 E0.03695
G1 X119.116 Y75.396 E0.03858
G1 X119.699 Y76.450 E0.03776
G1 X120.238 Y77.527 E0.03777
G1 X120.732 Y78.626 E0.03776
G1 X121.180 Y79.744 E0.03777
G1 X121.581 Y80.880 E0.03776
G1 X121.935 Y82.031 E0.03776
G1 X122.240 Y83.196 E0.03776
G1 X122.498 Y84.373 E0.03776
G1 X122.706 Y85.559 E0.03777
G1 X122.809 Y86.332 E0.02445
G1 X122.038 Y86.392 E0.02425
M204 S1250
G1 X121.602 Y86.533 F9000.000
G1 E-2.24000 F2400.000
;WIPE_START
G1 F7200.000
G1 X122.124 Y87.965 E-0.49864
G1 X122.183 Y89.113 E-0.36417
G1 X122.185 Y89.268 E-0.04919
;WIPE_END
G1 E-0.04800 F2400.000
G1 Z0.400 F9000.000
G1 X111.855 Y67.695
G1 Z0.200
G1 E3.20000 F1500.000
M204 S800
;TYPE:Solid infill
;WIDTH:0.421949
G1 F1200.000
G1 X114.284 Y70.125 E0.10830
G1 X115.086 Y70.978 E0.03691
G1 X115.855 Y71.869 E0.03709
G1 X116.587 Y72.791 E0.03710
G1 X117.051 Y73.427 E0.02480
G1 X110.524 Y66.900 E0.29092
G1 X109.760 Y66.367 E0.02936
G1 X108.912 Y65.825 E0.03171
G1 X118.124 Y75.037 E0.41058
G1 X118.545 Y75.728 E0.02551
G1 X118.875 Y76.323 E0.02145
G1 X107.626 Y65.075 E0.50137
G1 X106.511 Y64.496 E0.03959
G1 X119.457 Y77.442 E0.57702
G1 X119.929 Y78.449 E0.03506
G1 X105.502 Y64.023 E0.64301
G1 X104.568 Y63.624 E0.03202
G1 X120.322 Y79.379 E0.70221
G1 X120.659 Y80.252 E0.02947
G1 X103.705 Y63.298 E0.75565
G1 X102.886 Y63.015 E0.02730
G1 X120.952 Y81.081 E0.80520
G1 X121.190 Y81.855 E0.02553
G1 X102.101 Y62.766 E0.85081
G1 X101.351 Y62.552 E0.02459
G1 X121.403 Y82.603 E0.89373
G1 X121.593 Y83.330 E0.02369
G1 X100.635 Y62.371 E0.93416
G1 X99.935 Y62.208 E0.02263
G1 X121.745 Y84.018 E0.97206
M73 P0 R186
G1 X121.882 Y84.691 E0.02165
G1 X99.267 Y62.076 E1.00798
G1 X98.614 Y61.959 E0.02090
G1 X121.988 Y85.333 E1.04181
G1 X122.054 Y85.729 E0.01265
G1 X121.863 Y85.744 E0.00603
G1 X97.979 Y61.860 E1.06454
G1 X97.363 Y61.780 E0.01957
G1 X121.366 Y85.783 E1.06982
G1 X121.260 Y85.791 E0.00336
G1 X121.303 Y86.256 E0.01470
G1 X96.759 Y61.712 E1.09395
G1 X96.173 Y61.662 E0.01852
G1 X121.357 Y86.847 E1.12250
G1 X121.412 Y87.437 E0.01870
G1 X95.596 Y61.621 E1.15067
G1 X95.035 Y61.596 E0.01770
G1 X121.466 Y88.028 E1.17809
G1 X121.496 Y88.593 E0.01784
G1 X94.486 Y61.583 E1.20383
G1 X93.951 Y61.584 E0.01688
G1 X121.524 Y89.157 E1.22896
G1 X121.530 Y89.699 E0.01708
G1 X93.415 Y61.585 E1.25309
G1 X92.888 Y61.593 E0.01663
G1 X121.536 Y90.241 E1.27687
G1 X121.521 Y90.762 E0.01643
G1 X92.379 Y61.620 E1.29890
G1 X91.870 Y61.647 E0.01607
G1 X121.506 Y91.283 E1.32091
G1 X121.474 Y91.787 E0.01593
G1 X91.380 Y61.693 E1.34133
G1 X90.890 Y61.739 E0.01550
G1 X121.439 Y92.288 E1.36158
G1 X121.393 Y92.778 E0.01551
G1 X90.411 Y61.797 E1.38087
G1 X89.940 Y61.861 E0.01500
G1 X121.339 Y93.260 E1.39950
G1 X121.285 Y93.743 E0.01529
G1 X89.470 Y61.928 E1.41801
G1 X89.016 Y62.009 E0.01456
G1 X121.385 Y94.378 E1.44273
M204 S1250
G1 X121.593 Y94.586 F9000.000
M204 S800
G1 F1200.000
G1 X121.943 Y94.936 E0.01559
G1 X121.859 Y95.389 E0.01450
G1 X88.561 Y62.090 E1.48414
G1 X88.116 Y62.181 E0.01432
G1 X121.776 Y95.841 E1.50026
G1 X121.680 Y96.282 E0.01421
G1 X87.677 Y62.278 E1.51556
G1 X87.238 Y62.376 E0.01416
G1 X121.577 Y96.715 E1.53051
G1 X121.474 Y97.147 E0.01402
G1 X86.814 Y62.488 E1.54481
M73 P1 R186
G1 X86.391 Y62.600 E0.01381
G1 X121.356 Y97.566 E1.55844
G1 X121.238 Y97.984 E0.01369
