; generated by PrusaSlicer 2.3.0+ on 2021-05-19 at 15:54:37 UTC


;
;

;
;
; 

; external perimeters extrusion width = 0.45mm
; perimeters extrusion width = 0.45mm
; infill extrusion width = 0.45mm
; solid infill extrusion width = 0.45mm
; top infill extrusion width = 0.40mm
; first layer extrusion width = 0.42mm

M73 P0 R3
M201 X1250 Y1250 Z400 E5000 ; sets maximum accelerations, mm/sec^2
M203 X180 Y180 Z12 E80 ; sets maximum feedrates, mm/sec
M204 P1250 R1250 T1250 ; sets acceleration (P, T) and retract acceleration (R), mm/sec^2
M205 X8.00 Y8.00 Z2.00 E10.00 ; sets the jerk limits, mm/sec
M205 S0 T0 ; sets the minimum extruding and travel feed rate, mm/sec
M107
;TYPE:Custom
G90 ; use absolute coordinates
M83 ; extruder relative mode
M104 S170 ; set extruder temp for bed leveling
M140 S100 ; set bed temp
M109 R170 ; wait for bed leveling temp
M190 S100 ; wait for bed temp
G28 ; home all without mesh bed level
G29 ; mesh bed leveling 
M104 S260 ; set extruder temp
G92 E0.0
G1 Y-2.0 X179 F2400
M73 P2 R3
G1 Z3 F720
M109 S260 ; wait for extruder temp

; intro line
G1 X170 F1000
G1 Z0.2 F720
M73 P3 R3
G1 X110.0 E8.0 F900
M73 P5 R3
G1 X40.0 E10.0 F700
G92 E0.0

M221 S95 ; set flow
G21 ; set units to millimeters
G90 ; use absolute coordinates
M83 ; use relative distances for extrusion
M900 K0.2 ; Filament gcode
;LAYER_CHANGE
;Z:0.2
;HEIGHT:0.2
;BEFORE_LAYER_CHANGE
G92 E0.0
;0.2


M73 P8 R3
G1 E-2.70000 F4200.000
G1 Z0.200 F9000.000
;AFTER_LAYER_CHANGE
;0.2
G1 Z0.400
G1 X78.707 Y78.589
M73 P9 R3
G1 Z0.200
G1 E2.70000 F2400.000
M204 S800
;TYPE:Skirt
;WIDTH:0.42
G1 F1200.000
G1 X79.780 Y77.619 E0.04535
G1 X81.074 Y76.656 E0.05057
G1 X82.446 Y75.834 E0.05014
G1 X83.903 Y75.149 E0.05048
G1 X85.408 Y74.617 E0.05007
G1 X86.812 Y74.266 E0.04535
G1 X88.392 Y74.027 E0.05013
G1 X90.004 Y73.946 E0.05060
G1 X91.611 Y74.027 E0.05047
G1 X93.192 Y74.266 E0.05014
G1 X94.752 Y74.665 E0.05046
G1 X96.112 Y75.155 E0.04535
G1 X97.559 Y75.837 E0.05014
G1 X98.939 Y76.665 E0.05048
G1 X100.232 Y77.629 E0.05057
G1 X101.411 Y78.707 E0.05007
G1 X102.381 Y79.780 E0.04535
G1 X103.344 Y81.074 E0.05057
M73 P10 R3
G1 X104.166 Y82.446 E0.05014
G1 X104.851 Y83.903 E0.05048
G1 X105.383 Y85.408 E0.05007
G1 X105.734 Y86.812 E0.04535
G1 X105.973 Y88.388 E0.05000
G1 X106.054 Y90.000 E0.05060
G1 X105.973 Y91.611 E0.05059
G1 X105.734 Y93.188 E0.05001
G1 X105.383 Y94.592 E0.04535
G1 X104.850 Y96.100 E0.05016
G1 X104.165 Y97.555 E0.05043
G1 X103.344 Y98.926 E0.05009
G1 X102.381 Y100.220 E0.05057
G1 X101.411 Y101.293 E0.04535
G1 X100.234 Y102.370 E0.05003
G1 X98.940 Y103.334 E0.05059
G1 X97.558 Y104.164 E0.05056
G1 X96.112 Y104.845 E0.05009
G1 X94.752 Y105.335 E0.04535
G1 X93.191 Y105.734 E0.05051
G1 X91.612 Y105.973 E0.05007
G1 X90.000 Y106.054 E0.05060
M73 P11 R3
G1 X88.389 Y105.973 E0.05059
G1 X86.812 Y105.734 E0.05001
G1 X85.408 Y105.383 E0.04535
G1 X83.900 Y104.850 E0.05016
G1 X82.445 Y104.165 E0.05043
G1 X81.074 Y103.344 E0.05009
G1 X79.780 Y102.381 E0.05057
G1 X78.707 Y101.411 E0.04535
G1 X77.630 Y100.234 E0.05003
G1 X76.666 Y98.940 E0.05059
G1 X75.836 Y97.558 E0.05056
G1 X75.155 Y96.112 E0.05009
G1 X74.665 Y94.752 E0.04535
G1 X74.266 Y93.191 E0.05051
G1 X74.027 Y91.612 E0.05007
G1 X73.946 Y90.000 E0.05060
G1 X74.027 Y88.389 E0.05059
G1 X74.266 Y86.808 E0.05014
G1 X74.665 Y85.248 E0.05046
G1 X75.155 Y83.888 E0.04535
G1 X75.837 Y82.441 E0.05014
G1 X76.665 Y81.061 E0.05048
G1 X77.629 Y79.768 E0.05057
M73 P12 R3
G1 X78.667 Y78.633 E0.04819
M204 S1250
G1 X78.945 Y78.888 F9000.000
M204 S800
G1 F1200.000
G1 X80.019 Y77.911 E0.04552
G1 X81.282 Y76.970 E0.04939
G1 X82.621 Y76.168 E0.04894
G1 X84.047 Y75.497 E0.04942
G1 X85.518 Y74.977 E0.04891
G1 X86.884 Y74.636 E0.04416
G1 X88.427 Y74.402 E0.04892
G1 X90.005 Y74.323 E0.04953
G1 X91.571 Y74.402 E0.04917
G1 X93.116 Y74.636 E0.04898
G1 X94.642 Y75.026 E0.04940
G1 X95.967 Y75.503 E0.04416
G1 X97.379 Y76.168 E0.04894
G1 X98.730 Y76.979 E0.04941
G1 X99.993 Y77.921 E0.04939
G1 X101.144 Y78.974 E0.04892
G1 X102.089 Y80.019 E0.04416
G1 X103.030 Y81.282 E0.04939
G1 X103.832 Y82.621 E0.04894
G1 X104.501 Y84.044 E0.04930
G1 X105.023 Y85.518 E0.04903
G1 X105.364 Y86.884 E0.04416
M73 P13 R3
G1 X105.598 Y88.427 E0.04892
G1 X105.677 Y90.001 E0.04941
G1 X105.598 Y91.571 E0.04928
G1 X105.364 Y93.116 E0.04898
G1 X104.974 Y94.642 E0.04940
G1 X104.497 Y95.967 E0.04416
G1 X103.832 Y97.379 E0.04894
G1 X103.021 Y98.730 E0.04941
G1 X102.079 Y99.993 E0.04939
G1 X101.026 Y101.144 E0.04892
G1 X99.981 Y102.089 E0.04416
G1 X98.718 Y103.030 E0.04939
G1 X97.379 Y103.832 E0.04894
G1 X95.956 Y104.501 E0.04930
G1 X94.482 Y105.023 E0.04903
G1 X93.116 Y105.364 E0.04416
G1 X91.573 Y105.598 E0.04892
G1 X89.999 Y105.677 E0.04941
G1 X88.429 Y105.598 E0.04928
G1 X86.884 Y105.364 E0.04898
G1 X85.358 Y104.974 E0.04940
G1 X84.033 Y104.497 E0.04416
G1 X82.621 Y103.832 E0.04894
M73 P14 R3
G1 X81.269 Y103.021 E0.04941
G1 X80.007 Y102.079 E0.04939
G1 X78.856 Y101.026 E0.04892
G1 X77.911 Y99.981 E0.04416
G1 X76.970 Y98.718 E0.04939
G1 X76.168 Y97.379 E0.04894
G1 X75.499 Y95.956 E0.04930
G1 X74.977 Y94.482 E0.04903
G1 X74.636 Y93.116 E0.04416
G1 X74.402 Y91.573 E0.04892
G1 X74.323 Y89.999 E0.04941
G1 X74.402 Y88.429 E0.04928
G1 X74.636 Y86.884 E0.04898
G1 X75.026 Y85.358 E0.04940
G1 X75.503 Y84.033 E0.04416
G1 X76.168 Y82.621 E0.04894
G1 X76.979 Y81.269 E0.04941
G1 X77.921 Y80.007 E0.04939
G1 X78.904 Y78.932 E0.04568
M204 S1250
; printing object Lens Blocker.stl id:0 copy 0
G1 E-2.70000 F4200.000
G1 Z0.400 F9000.000
G1 X81.212 Y81.093
G1 Z0.200
G1 E2.70000 F2400.000
M204 S800
;TYPE:Perimeter
M73 P15 R3
G1 F1200.000
G1 X81.666 Y80.666 E0.01954
G1 X82.146 Y80.259 E0.01972
G1 X82.645 Y79.877 E0.01972
G1 X83.159 Y79.523 E0.01955
G1 X84.115 Y78.958 E0.03485
G1 X84.672 Y78.678 E0.01954
G1 X85.248 Y78.425 E0.01972
G1 X85.835 Y78.201 E0.01972
G1 X86.434 Y78.006 E0.01972
G1 X87.041 Y77.842 E0.01972
G1 X87.655 Y77.709 E0.01972
G1 X88.276 Y77.607 E0.01972
G1 X88.901 Y77.536 E0.01972
G1 X89.530 Y77.496 E0.01976
G1 X90.024 Y77.487 E0.01550
G1 X90.628 Y77.503 E0.01895
G1 X91.256 Y77.550 E0.01973
G1 X91.880 Y77.629 E0.01972
G1 X92.499 Y77.739 E0.01972
G1 X93.112 Y77.880 E0.01972
G1 X93.717 Y78.052 E0.01972
G1 X94.312 Y78.254 E0.01972
G1 X94.897 Y78.485 E0.01972
G1 X95.470 Y78.746 E0.01972
G1 X96.028 Y79.035 E0.01972
G1 X96.571 Y79.352 E0.01972
G1 X97.098 Y79.695 E0.01972
G1 X97.607 Y80.065 E0.01972
G1 X98.092 Y80.456 E0.01954
G1 X98.907 Y81.212 E0.03485
G1 X99.334 Y81.666 E0.01954
G1 X99.741 Y82.146 E0.01972
G1 X100.123 Y82.645 E0.01972
G1 X100.477 Y83.159 E0.01955
G1 X101.042 Y84.115 E0.03485
G1 X101.322 Y84.672 E0.01954
G1 X101.573 Y85.243 E0.01954
G1 X101.949 Y86.289 E0.03485
G1 X102.120 Y86.888 E0.01955
G1 X102.261 Y87.501 E0.01972
G1 X102.371 Y88.120 E0.01972
G1 X102.450 Y88.744 E0.01972
G1 X102.497 Y89.371 E0.01972
G1 X102.513 Y90.000 E0.01972
G1 X102.497 Y90.629 E0.01972
G1 X102.450 Y91.256 E0.01972
G1 X102.371 Y91.880 E0.01972
M73 P15 R2
G1 X102.261 Y92.499 E0.01972
G1 X102.120 Y93.112 E0.01972
G1 X101.949 Y93.711 E0.01955
G1 X101.573 Y94.757 E0.03485
G1 X101.322 Y95.328 E0.01954
M73 P16 R2
G1 X101.042 Y95.885 E0.01954
G1 X100.477 Y96.841 E0.03485
G1 X100.123 Y97.355 E0.01955
G1 X99.741 Y97.854 E0.01972
G1 X99.334 Y98.334 E0.01972
G1 X98.907 Y98.788 E0.01954
G1 X98.092 Y99.544 E0.03485
G1 X97.607 Y99.935 E0.01954
G1 X97.098 Y100.305 E0.01972
G1 X96.571 Y100.648 E0.01972
G1 X96.028 Y100.965 E0.01972
G1 X95.470 Y101.254 E0.01972
G1 X94.897 Y101.515 E0.01972
G1 X94.312 Y101.746 E0.01972
G1 X93.717 Y101.948 E0.01972
G1 X93.112 Y102.120 E0.01972
G1 X92.499 Y102.261 E0.01972
G1 X91.880 Y102.371 E0.01972
G1 X91.256 Y102.450 E0.01972
G1 X90.629 Y102.497 E0.01972
G1 X90.000 Y102.513 E0.01972
G1 X89.371 Y102.497 E0.01972
G1 X88.744 Y102.450 E0.01972
G1 X88.120 Y102.371 E0.01972
G1 X87.501 Y102.261 E0.01972
G1 X86.888 Y102.120 E0.01972
G1 X86.289 Y101.949 E0.01955
G1 X85.243 Y101.573 E0.03485
G1 X84.672 Y101.322 E0.01954
G1 X84.115 Y101.042 E0.01954
G1 X83.159 Y100.477 E0.03485
G1 X82.645 Y100.123 E0.01955
G1 X82.146 Y99.741 E0.01972
G1 X81.666 Y99.334 E0.01972
G1 X81.212 Y98.907 E0.01954
G1 X80.456 Y98.092 E0.03485
G1 X80.065 Y97.607 E0.01954
G1 X79.695 Y97.098 E0.01972
G1 X79.352 Y96.571 E0.01972
G1 X79.035 Y96.028 E0.01972
G1 X78.746 Y95.470 E0.01972
G1 X78.485 Y94.897 E0.01972
G1 X78.254 Y94.312 E0.01972
G1 X78.052 Y93.717 E0.01972
G1 X77.880 Y93.112 E0.01972
G1 X77.739 Y92.499 E0.01972
G1 X77.629 Y91.880 E0.01972
G1 X77.550 Y91.256 E0.01972
G1 X77.503 Y90.629 E0.01972
G1 X77.487 Y90.000 E0.01972
G1 X77.503 Y89.371 E0.01972
G1 X77.550 Y88.744 E0.01972
G1 X77.629 Y88.120 E0.01972
M73 P17 R2
G1 X77.739 Y87.501 E0.01972
G1 X77.880 Y86.888 E0.01972
G1 X78.052 Y86.283 E0.01972
G1 X78.254 Y85.688 E0.01972
G1 X78.485 Y85.103 E0.01972
G1 X78.746 Y84.530 E0.01972
G1 X79.035 Y83.972 E0.01972
G1 X79.352 Y83.429 E0.01972
G1 X79.695 Y82.902 E0.01972
G1 X80.065 Y82.393 E0.01972
G1 X80.456 Y81.908 E0.01954
G1 X81.171 Y81.137 E0.03297
M204 S1250
G1 X80.895 Y80.881 F9000.000
M204 S800
;TYPE:External perimeter
G1 F1200.000
G1 X81.415 Y80.385 E0.02253
G1 X81.909 Y79.966 E0.02031
G1 X82.424 Y79.572 E0.02031
G1 X82.955 Y79.205 E0.02025
G1 X83.934 Y78.626 E0.03566
G1 X84.512 Y78.337 E0.02025
G1 X85.105 Y78.076 E0.02031
G1 X85.710 Y77.845 E0.02031
G1 X86.326 Y77.645 E0.02031
G1 X86.952 Y77.476 E0.02031
G1 X87.585 Y77.338 E0.02031
G1 X88.224 Y77.233 E0.02031
G1 X88.868 Y77.160 E0.02032
G1 X89.515 Y77.119 E0.02033
G1 X90.026 Y77.110 E0.01603
G1 X90.648 Y77.126 E0.01950
G1 X91.294 Y77.175 E0.02032
G1 X91.936 Y77.256 E0.02031
G1 X92.574 Y77.370 E0.02031
G1 X93.206 Y77.515 E0.02031
G1 X93.829 Y77.692 E0.02031
G1 X94.442 Y77.900 E0.02031
G1 X95.045 Y78.138 E0.02031
G1 X95.634 Y78.407 E0.02031
G1 X96.210 Y78.704 E0.02031
G1 X96.769 Y79.031 E0.02032
G1 X97.312 Y79.385 E0.02031
G1 X97.836 Y79.765 E0.02031
G1 X98.339 Y80.171 E0.02025
G1 X99.173 Y80.944 E0.03566
G1 X99.615 Y81.415 E0.02025
G1 X100.034 Y81.909 E0.02031
G1 X100.428 Y82.424 E0.02031
G1 X100.795 Y82.955 E0.02025
G1 X101.374 Y83.934 E0.03566
G1 X101.663 Y84.512 E0.02025
G1 X101.923 Y85.103 E0.02025
G1 X102.309 Y86.173 E0.03566
G1 X102.485 Y86.794 E0.02025
M73 P18 R2
G1 X102.630 Y87.426 E0.02031
G1 X102.744 Y88.064 E0.02031
G1 X102.825 Y88.706 E0.02031
G1 X102.874 Y89.352 E0.02031
G1 X102.890 Y90.000 E0.02031
G1 X102.874 Y90.648 E0.02031
G1 X102.825 Y91.294 E0.02031
G1 X102.744 Y91.936 E0.02031
G1 X102.630 Y92.574 E0.02031
G1 X102.485 Y93.206 E0.02031
G1 X102.309 Y93.827 E0.02025
G1 X101.923 Y94.897 E0.03566
G1 X101.663 Y95.488 E0.02025
G1 X101.374 Y96.066 E0.02025
G1 X100.795 Y97.045 E0.03566
G1 X100.428 Y97.576 E0.02025
G1 X100.034 Y98.091 E0.02031
G1 X99.615 Y98.585 E0.02031
G1 X99.173 Y99.056 E0.02025
G1 X98.339 Y99.829 E0.03566
G1 X97.836 Y100.235 E0.02025
G1 X97.312 Y100.615 E0.02031
G1 X96.769 Y100.969 E0.02031
G1 X96.210 Y101.296 E0.02032
G1 X95.634 Y101.593 E0.02031
G1 X95.045 Y101.862 E0.02031
G1 X94.442 Y102.100 E0.02031
G1 X93.829 Y102.308 E0.02031
G1 X93.206 Y102.485 E0.02031
G1 X92.574 Y102.630 E0.02031
G1 X91.936 Y102.744 E0.02031
G1 X91.294 Y102.825 E0.02031
G1 X90.648 Y102.874 E0.02031
G1 X90.000 Y102.890 E0.02031
G1 X89.352 Y102.874 E0.02031
G1 X88.706 Y102.825 E0.02031
G1 X88.064 Y102.744 E0.02031
G1 X87.426 Y102.630 E0.02031
G1 X86.794 Y102.485 E0.02031
G1 X86.173 Y102.309 E0.02025
G1 X85.103 Y101.923 E0.03566
G1 X84.512 Y101.663 E0.02025
G1 X83.934 Y101.374 E0.02025
G1 X82.955 Y100.795 E0.03566
G1 X82.424 Y100.428 E0.02025
G1 X81.909 Y100.034 E0.02031
G1 X81.415 Y99.615 E0.02031
G1 X80.944 Y99.173 E0.02025
G1 X80.171 Y98.339 E0.03566
G1 X79.765 Y97.836 E0.02025
G1 X79.385 Y97.312 E0.02031
M73 P19 R2
G1 X79.031 Y96.769 E0.02031
G1 X78.704 Y96.210 E0.02032
G1 X78.407 Y95.634 E0.02031
G1 X78.138 Y95.045 E0.02031
G1 X77.900 Y94.442 E0.02031
G1 X77.692 Y93.829 E0.02031
G1 X77.515 Y93.206 E0.02031
G1 X77.370 Y92.574 E0.02031
G1 X77.256 Y91.936 E0.02031
G1 X77.175 Y91.294 E0.02031
G1 X77.126 Y90.648 E0.02031
G1 X77.110 Y90.000 E0.02031
G1 X77.126 Y89.352 E0.02031
G1 X77.175 Y88.706 E0.02031
G1 X77.256 Y88.064 E0.02031
G1 X77.370 Y87.426 E0.02031
G1 X77.515 Y86.794 E0.02031
G1 X77.692 Y86.171 E0.02031
G1 X77.900 Y85.558 E0.02031
G1 X78.138 Y84.955 E0.02031
G1 X78.407 Y84.366 E0.02031
G1 X78.704 Y83.790 E0.02031
G1 X79.031 Y83.231 E0.02032
G1 X79.385 Y82.688 E0.02031
G1 X79.765 Y82.164 E0.02031
G1 X80.171 Y81.661 E0.02025
G1 X80.854 Y80.925 E0.03149
M204 S1250
G1 X81.282 Y80.982 F9000.000
G1 E-2.70000 F4200.000
G1 Z0.400 F9000.000
G1 X100.094 Y82.803
G1 Z0.200
G1 E2.70000 F2400.000
M204 S800
;TYPE:Solid infill
;WIDTH:0.425011
G1 F1200.000
G1 X98.660 Y81.369 E0.06444
G1 X97.907 Y80.670 E0.03263
G1 X97.435 Y80.290 E0.01927
G1 X96.938 Y79.928 E0.01953
G1 X96.233 Y79.482 E0.02651
G1 X100.493 Y83.742 E0.19142
M73 P20 R2
G1 X100.794 Y84.251 E0.01877
G1 X101.115 Y84.904 E0.02313
G1 X95.099 Y78.888 E0.27032
G1 X94.177 Y78.506 E0.03169
G1 X101.475 Y85.804 E0.32789
G1 X101.749 Y86.619 E0.02733
G1 X93.381 Y78.251 E0.37602
M73 P21 R2
G1 X92.655 Y78.065 E0.02379
G1 X101.935 Y87.345 E0.41694
G1 X102.065 Y88.016 E0.02171
G1 X91.984 Y77.935 E0.45293
G1 X91.357 Y77.848 E0.02011
G1 X102.152 Y88.643 E0.48500
M73 P22 R2
G1 X102.203 Y89.234 E0.01887
G1 X90.766 Y77.797 E0.51389
G1 X90.211 Y77.783 E0.01761
G1 X102.225 Y89.797 E0.53977
M73 P23 R2
G1 X102.221 Y90.334 E0.01706
G1 X89.668 Y77.780 E0.56406
G1 X89.151 Y77.803 E0.01644
G1 X102.197 Y90.849 E0.58617
M73 P24 R2
G1 X102.153 Y91.346 E0.01584
G1 X88.655 Y77.848 E0.60647
G1 X88.176 Y77.910 E0.01534
G1 X102.093 Y91.826 E0.62526
M73 P25 R2
G1 X102.011 Y92.285 E0.01482
G1 X87.713 Y77.986 E0.64247
M73 P26 R2
G1 X87.268 Y78.082 E0.01444
G1 X101.917 Y92.731 E0.65818
G1 X101.811 Y93.165 E0.01419
G1 X86.836 Y78.190 E0.67282
M73 P27 R2
G1 X86.415 Y78.310 E0.01391
G1 X101.691 Y93.586 E0.68637
G1 X101.550 Y93.985 E0.01346
G1 X86.007 Y78.442 E0.69837
M73 P28 R2
G1 X85.613 Y78.588 E0.01336
G1 X101.407 Y94.383 E0.70966
M73 P29 R2
G1 X101.257 Y94.773 E0.01328
G1 X85.227 Y78.743 E0.72024
G1 X84.852 Y78.908 E0.01302
G1 X101.092 Y95.148 E0.72968
M73 P30 R2
G1 X100.914 Y95.510 E0.01283
G1 X84.490 Y79.086 E0.73795
M73 P31 R2
G1 X84.137 Y79.273 E0.01270
G1 X100.727 Y95.863 E0.74540
G1 X100.526 Y96.203 E0.01253
G1 X83.797 Y79.474 E0.75163
M73 P32 R2
G1 X83.458 Y79.675 E0.01253
G1 X100.325 Y96.542 E0.75787
M73 P33 R2
G1 X100.113 Y96.871 E0.01242
G1 X83.129 Y79.887 E0.76310
G1 X82.812 Y80.106 E0.01226
G1 X99.892 Y97.191 E0.76755
M73 P34 R2
G1 X99.658 Y97.497 E0.01225
G1 X82.503 Y80.342 E0.77078
M73 P35 R2
G1 X82.203 Y80.582 E0.01221
G1 X99.418 Y97.797 E0.77350
M73 P36 R2
G1 X99.170 Y98.089 E0.01218
G1 X81.911 Y80.830 E0.77549
G1 X81.629 Y81.089 E0.01215
G1 X98.911 Y98.371 E0.77648
M73 P37 R2
G1 X98.645 Y98.645 E0.01214
G1 X81.355 Y81.355 E0.77687
M73 P38 R2
G1 X81.095 Y81.635 E0.01215
G1 X98.365 Y98.905 E0.77596
G1 X98.084 Y99.165 E0.01215
G1 X80.835 Y81.916 E0.77504
M73 P39 R2
G1 X80.582 Y82.203 E0.01216
G1 X97.797 Y99.418 E0.77351
M73 P40 R2
G1 X97.498 Y99.659 E0.01221
G1 X80.341 Y82.502 E0.77090
G1 X80.110 Y82.812 E0.01227
G1 X97.188 Y99.890 E0.76732
M73 P41 R2
G1 X96.872 Y100.114 E0.01231
G1 X79.886 Y83.128 E0.76322
M73 P42 R2
G1 X79.672 Y83.455 E0.01241
G1 X96.545 Y100.328 E0.75811
M73 P43 R2
G1 X96.209 Y100.532 E0.01249
G1 X79.468 Y83.791 E0.75220
G1 X79.270 Y84.133 E0.01257
G1 X95.867 Y100.730 E0.74571
M73 P44 R2
G1 X95.511 Y100.914 E0.01274
G1 X79.086 Y84.489 E0.73799
M73 P45 R2
G1 X78.910 Y84.854 E0.01285
G1 X95.146 Y101.090 E0.72954
G1 X94.775 Y101.259 E0.01297
G1 X78.741 Y85.225 E0.72041
M73 P46 R2
G1 X78.588 Y85.612 E0.01323
G1 X94.388 Y101.412 E0.70990
G1 X93.991 Y101.556 E0.01340
M73 P47 R2
G1 X78.444 Y86.009 E0.69857
G1 X78.309 Y86.414 E0.01358
G1 X93.586 Y101.691 E0.68641
M73 P48 R2
G1 X93.165 Y101.811 E0.01390
G1 X78.189 Y86.835 E0.67286
G1 X78.083 Y87.269 E0.01419
G1 X92.731 Y101.917 E0.65815
M73 P49 R2
G1 X92.285 Y102.011 E0.01448
G1 X77.989 Y87.715 E0.64236
M73 P50 R1
G1 X77.907 Y88.174 E0.01482
G1 X91.826 Y102.093 E0.62536
G1 X91.346 Y102.153 E0.01536
G1 X77.847 Y88.654 E0.60652
